!!!!SEGMENT: pl-wumfc--n43007_namyslowski-karol--wiejski-mazur.krn
!!!OTL: Title
!!!cenid: 18xx:4172
!!!COM: Namysłowski, Karol
!!!COM-rismID: pe30020486
!!!CDT: 1856-1925
!!!CNT: Polish
!!!OTL: „Wiejski” Mazur
!!!PDT: @SMS-siglum: PL-Wumfc
!!!AGN:
!!!SMS-shelfmark: N43007
!!!SMS-shelfwork: W
!!!SMS-variant:
!!!SMS-altvar:
!!!NIFC-rismSourceID: 1001167162
!!!NIFC-rismChildID: 1001167162
!!!NIFC-islandoraID: pl-wumfc:5899
!!!URL-pdf-islandora: https://repozytorium.nifc.pl/islandora/object/pl-wumfc%3A5899/datastream/PDF/view
!!!URL-scan: https://polish.musicsources.pl/pl/lokalizacje/galeria/druki-muzyczne/12446-wiejski-mazur/1 @EN{Scan on Polish Music Sources Website} @PL{Skany w portalu Dziedzictwo Muzyki Polskiej w otwartym dostępie}
!!!ONB-nifc:
!!!AIN: 1 piano
!!!key: D
**kern	**kern	**dynam
*part1	*part1	*part1
*staff2	*staff1	*
*Ipiano	*Iempty	*
*I"Piano.	*Piano.	*
*>[A,B,A,C,C,A]	*>[A,B,A,C,C,A]	*
*>A	*>A	*
*clefF4	*clefG2	*
*k[f#c#]	*k[f#c#]	*
*D:	*D:	*
*M3/8	*M3/8	*
=1	=1	=1
!!LO:TX:a:t=[segno]
!!LO:TX:b:t=[segno]
.	(16qqa/L	f
.	16qqb/	.
.	16qqcc#/J	.
8dL 8A 8F# 8D\	16.dd\LL)	.
.	32dd\JJk	.
8d 8A 8F# 8D\	8a\L	.
8dJ 8A 8F# 8D\	8ff#J 8a^^\	.
=2	=2	=2
16d 16A 16F# 16D\	16.dd\LL	.
16r	.	.
.	32bb\JJk	.
4d 4A 4F# 4D^^\	4aa^^\	.
=3	=3	=3
.	(16qqaa/L	.
.	16qqbb/	.
.	16qqccc#/J	.
8dL 8A 8F# 8D\	16.ddd\LL)	.
.	32ddd\JJk	.
8d 8A 8F# 8D\	8aa\L	.
8dJ 8A 8F# 8D\	8fff#^^\J	.
=4	=4	=4
16d 16A 16F# 16D\	16.ddd\LL	.
16r	.	.
.	32bbb\JJk	.
4d 4A 4F# 4D^^\	4aaa^^\	.
=5	=5	=5
!	!LO:TUP:a	!
8AA\L	24aa\LL	mf
.	24aa\	.
.	24aa\JJ	.
8c# 8A 8G\	16.aa\LL	.
.	32ee\Jk	.
8c#J 8A 8G\	8aa\J	.
!!LO:LB:g=original
=6	=6	=6
!	!LO:TUP:a	!
8D\L	24ff#\LL	.
.	24ff#\	.
.	24ff#\JJ	.
8d 8A 8F#\	16.ff#\LL	.
.	32dd\Jk	.
8dJ 8A 8F#\	8ff#\J	.
=7	=7	=7
!	!LO:TUP:a	!
8EL 8EE\	24ee\LL	.
.	24ee\	.
.	24ee\JJ	.
8d 8G#X 8E\	16eee\KL	.
!	!LO:N:vis=[16]	!
.	32r	.
.	32bb\KL	.
8dJ 8G# 8E\	16ddd\J	.
!	!LO:N:vis=[16]	!
.	32r	.
.	32gg#X\Jkk	.
=8	=8	=8
16c# 16A\	16aa\	.
16r	16r	.
4A 4E 4AA^^\	4a 4c#^^/	.
=9	=9	=9
.	(16qqa/L	f
.	16qqb/	.
.	16qqcc#/J	.
8dL 8A 8F# 8D\	16.dd\LL)	.
.	32dd\JJk	.
8d 8A 8F# 8D\	8a\L	.
8dJ 8A 8F# 8D\	8ff#J 8a\	.
=10	=10	=10
16d 16A 16F# 16D\	16.dd\LL	.
16r	.	.
.	32bb\JJk	.
4d 4A 4F# 4D^^\	4aa^^\	.
!!LO:LB:g=original
=11	=11	=11
.	(16qqaa/L	.
.	16qqbb/	.
.	16qqccc#/J	.
8dL 8A 8F# 8D\	16.ddd\LL)	.
.	32ddd\JJk	.
8d 8A 8F# 8D\	8aa\L	.
8dJ 8A 8F# 8D\	8aaa^^\J	.
=12	=12	=12
16d 16A 16F# 16D\	16.ddd\LL	.
16r	.	.
.	32bbb\JJk	.
4d 4A 4F# 4D\	4aaa^^\	.
=13	=13	=13
.	(16qqaa/L	.
.	16qqccc#/	.
.	16qqeee/J	.
8AA\L	16.ggg\)	.
.	32r	.
8e 8A 8G\	8.ccc#\L	.
8eJ 8A 8G\	.	.
.	16ccc#\Jk	.
=14	=14	=14
8DL 8DD\	16.ddd\LL	.
.	32ddd\JJk	.
8d 8A 8F#\	8aa\L	.
8dJ 8A 8F#\	8fff#\J	.
=15	=15	=15
8AA\L	16.eee\LL	.
.	32ccc#\JJk	.
8c# 8A 8G\	8aa\L	.
8c#J 8A 8G\	16gg\L	.
.	16ee\JJ	.
=16	=16	=16
8dL 8A 8F# 8D\	8dd\L	.
8DJ 8DD\	8dddJ 8aa 8ff# 8dd\	.
8r	8r	.
!!LO:LB:g=original
=17||	=17||;	=17||
*>B	*>B	*
*k[f#c#g#]	*k[f#c#g#]	*
*A:	*A:	*
8AL 8E 8AA\	4eee^^\	ff
8A 8E 8AA\	.	.
8AJ 8E 8AA\	16ccc#\LL	.
.	16aa\JJ	.
=18	=18	=18
8AA\L	16.ee\LL	.
.	32aa\JJk	.
8c# 8A 8E\	8ccc#\L	.
8c#J 8A 8E\	16aa\L	.
.	16ccc#\JJ	.
=19	=19	=19
8dL 8G# 8E\	4ddd\	.
8d 8G# 8E\	.	.
8dJ 8B 8E\	16gg#\LL	.
.	16bb\JJ	.
=20	=20	=20
8AA\L	16.aa\LL	.
.	32ccc#\JJk	.
8c# 8A 8E\	8aaM\L	.
8c#J 8A 8E\	8ee\J	.
=21	=21	=21
8EE\L	16.bb\LL	p
.	32ddd\JJk	.
8d 8G# 8E\	8bbM\L	.
8dJ 8B 8E\	16gg#\L	.
.	16ee\JJ	.
!!LO:LB:g=original
=22	=22	=22
8AA\L	16.aa\LL	.
.	32ccc#\JJk	.
8c# 8A 8E\	8aaM\L	.
8c#J 8A 8E\	16eee\L	.
.	16ccc#\JJ	.
=23	=23	=23
.	(8qdd/	.
8EE\L	16.ddd\LL)	.
.	32ddd\JJk	.
8c# 8A 8E\	8ccc#\L	.
8c#J 8A 8E\	8aa\J	.
=24	=24	=24
8dL 8G# 8E\	16.bb\LL	.
.	32ee\JJk	.
8d 8B 8E\	8gg#\L	.
8c#J 8A\	8aa\J	.
=25	=25	=25
8AL 8E 8AA\	4eee\	ff
8A 8E 8AA\	.	.
8AJ 8E 8AA\	16ccc#\LL	.
.	16aa\JJ	.
=26	=26	=26
8AA\L	16.ee\LL	.
.	32aa\JJk	.
8c# 8A 8E\	8ccc#\L	.
8c#J 8A 8E\	16aa\L	.
.	16ccc#\JJ	.
!!LO:PB:g=original
=27	=27	=27
8dL 8G# 8E\	4ddd\	.
8d 8G# 8E\	.	.
8dJ 8B 8E\	16gg#\LL	.
.	16bb\JJ	.
=28	=28	=28
8AA\L	16.aa\LL	.
.	32eee\JJk	.
8c# 8A 8E\	8aaM\L	.
8c#J 8A 8E\	8ee\J	.
=29	=29	=29
16d 16B 16G# 16E\	16gg#\LL	.
16r	16bb\JJ	.
.	(8qbb/	.
4d 4B 4G# 4E^^\	8.gg#^^\L)	.
.	16ee\Jk	.
=30	=30	=30
8AA\L	16.aa\LL	.
.	32ccc#\JJk	.
8c# 8A 8E\	8eee\L	.
8c#J 8A 8E\	8eee\J	.
=31	=31	=31
!	!LO:TUP:a:problem:klamra łukowa	!
8EE\L	24ee\LL	.
.	24ff#\	.
.	24gg#\JJ	.
8d 8G# 8E\	8ee\L	.
8dJ 8B 8E\	16gg#\L	.
.	16bb\JJ	.
=32	=32	=32
8c#L 8A\	8aa\L	.
8AJ 8E 8AA\	8aaJ 8ee 8cc# 8a\	.
8r	8r	.
!!LO:LB:g=original
!!LO:TX:a:t=[segno]
!!LO:TX:b:t=[segno]
=33||	=33||	=33||
*>C	*>C	*
*k[f#]	*k[f#]	*
*G:	*G:	*
!!LO:TX:a:B:t=Trio.
8GL 8D 8GG/	8gg:L 8dd: 8b: 8g:\	f
8G 8D 8GG/	8g\	.
8GJ 8D 8GG/	8g\J	.
=34	=34	=34
8F#L 8D 8GG/	16a\LL	.
.	(8qdd/	.
.	16cc\JJ)	.
8G 8D 8GG/	8b\L	.
8GJ 8D 8GG/	8dd\J	.
=35	=35	=35
8GL 8D 8GG/	8gg:L 8dd: 8b: 8g:\	.
8G 8D 8GG/	8g\	.
8GJ 8D 8GG/	8g\J	.
=36	=36	=36
8F#L 8D 8GG/	16a\LL	.
.	(8qdd/	.
.	16cc\JJ)	.
8G 8D 8GG/	8b/L	.
8GJ 8D 8GG/	8g/J	.
!!LO:LB:g=original
=37||	=37||	=37||
8GG\L	16.gg\LL	p
.	32bb\JJk	.
8B 8G 8D\	4ddd\	.
8BJ 8G 8D\	.	.
=38	=38	=38
8GG\L	8ddd\L	.
.	(8qccc#X/	.
8B 8G 8D\	8ddd\)	.
.	(8qccc#/	.
8BJ 8G 8D\	8ddd\J)	.
=39	=39	=39
!	!LO:TUP:a:problem:klamra łukowa	!
8GG\L	24bb\LL	.
.	24aa#X\	.
.	24bb\JJ	.
8B 8G 8D\	8.ddd\L	.
8BJ 8G 8D\	.	.
.	16bb\Jk	.
=40	=40	=40
8DD/L	8aa\L	.
8c 8F# 8D\	16aa\L	.
.	16ff#\J	.
!	!LO:N:vis=[4]	!
8cJ 8F# 8D\	8dd\J	.
=41	=41	=41
8GG\L	16.dd\LL	.
.	32ff#\JJk	.
8B 8G 8D\	4gg\	.
8BJ 8G 8D\	.	.
!!LO:LB:g=original
=42	=42	=42
8GG\L	8gg\L	.
8B 8G 8D\	8bb\	.
8BJ 8G 8D\	8bb\J	.
=43	=43	=43
!	!LO:TUP:a:problem:klamra łukowa	!
8GG\L	24bb\LL	.
.	24aa#X\	.
.	24bb\JJ	.
8B 8G 8D\	8.ddd\L	.
8BJ 8G 8D\	.	.
.	16bb\Jk	.
=44	=44	=44
16.dLL 16.A 16.F# 16.D\	16.aa\LL	<
32DJJk 32DD\	32dddJJk 32dd\	.
8DL 8DD/	8dddL 8dd\	.
8DJ 8DD/	8dddJ 8dd\	[
=45	=45	=45
16.cLL 16.C\	8ff#L 8dd 8cc 8a\	ff
32cJJk 32C\	.	.
8BL 8BB\	8gg 8dd 8b 8g\	.
8AJ 8AA\	8ff#J 8dd 8cc 8a\	.
=46	=46	=46
4B 4BB\	8r	.
.	8ggL 8dd 8b 8g\	.
8d 8D\	8ggJ 8dd 8b 8g\	.
!!LO:LB:g=original
=47	=47	=47
16.cLL 16.C\	8ff#L 8dd 8cc 8a\	.
32cJJk 32C\	.	.
8BL 8BB\	8gg 8dd 8b 8g\	.
8AJ 8AA\	8ff#J 8dd 8cc 8a\	.
=48	=48	=48
8B 8BB\	8r	.
4G 4GG/	8ggL 8dd 8b 8g\	.
.	8ggJ 8dd 8b 8g\	.
=49	=49	=49
16.cLL 16.C\	8ff#L 8dd 8cc 8a\	.
32cJJk 32C\	.	.
8BL 8BB\	8gg 8dd 8b 8g\	.
8AJ 8AA\	8ff#J 8dd 8cc 8a\	.
=50	=50	=50
4B 4BB\	8r	.
.	8ggL 8dd 8b 8g\	.
8d 8D\	8ggJ 8dd 8b 8g\	.
=51	=51	=51
16.cLL 16.C\	8ff#L 8dd 8cc 8a\	.
32cJJk 32C\	.	.
8BL 8BB\	8gg 8dd 8b 8g\	.
8AJ 8AA\	8ff#J 8dd 8cc 8a\	.
=52	=52	=52
!!LO:TX:iB:b:t=M. D. C al [segno]
8GL 8GG/	8ggL 8dd 8b 8g\	.
8GJ 8D 8GG/	8gggJ 8ddd 8bb 8gg\	.
8r	8r	.
=:|!	=:|!	=:|!
*-	*-	*-
!!!system-decoration: {(p1)}
!!!ENC: Arek Malec
!!!END: 8-09-2022
!!!ENC: Kamil Watkowski
!!!END: 2022-09-22
!!!YEC: Copyright 2022 Narodowy Instytut Fryderyka Chopina (https://polishscores.org)
!!!YEM: License CC-BY-4.0 (https://creativecommons.org/licenses/by/4.0)
